material/.icons/material/cards.svg

<svg xmlns="http://www.w3.org/2000/svg" viewBox="0 0 24 24"><path d="M21.47 4.35l-1.34-.56v9.03l2.43-5.86c.41-1.02-.06-2.19-1.09-2.61m-19.5 3.7L6.93 20a2.01 2.01 0 001.81 1.26c.26 0 .53-.05.79-.16l7.37-3.05c.75-.31 1.21-1.05 1.23-1.79.01-.26-.04-.55-.13-.81L13 3.5a1.954 1.954 0 00-1.81-1.25c-.26 0-.52.06-.77.15L3.06 5.45a1.994 1.994 0 00-1.09 2.6m16.15-3.8a2 2 0 00-2-2h-1.45l3.45 8.34"/></svg>

<?xml version="1.0" encoding="UTF-8"?><!DOCTYPE svg PUBLIC "-//W3C//DTD SVG 1.1//EN" "http://www.w3.org/Graphics/SVG/1.1/DTD/svg11.dtd"><svg xmlns="http://www.w3.org/2000/svg" xmlns:xlink="http://www.w3.org/1999/xlink" version="1.1" id="mdi-cards" width="24" height="24" viewBox="0 0 24 24"><path d="M21.47,4.35L20.13,3.79V12.82L22.56,6.96C22.97,5.94 22.5,4.77 21.47,4.35M1.97,8.05L6.93,20C7.24,20.77 7.97,21.24 8.74,21.26C9,21.26 9.27,21.21 9.53,21.1L16.9,18.05C17.65,17.74 18.11,17 18.13,16.26C18.14,16 18.09,15.71 18,15.45L13,3.5C12.71,2.73 11.97,2.26 11.19,2.25C10.93,2.25 10.67,2.31 10.42,2.4L3.06,5.45C2.04,5.87 1.55,7.04 1.97,8.05M18.12,4.25A2,2 0 0,0 16.12,2.25H14.67L18.12,10.59" /></svg>
